X:1
T:Horsley, CM
T:William Horsley, 1844
T:Horsley, CM
T:Public Domain
C:William Horsley, 1844
Z:Public Domain
%%score ( 1 2 ) ( 3 4 )
L:1/8
M:4/4
K:Eb
V:1 treble 
V:2 treble 
V:3 bass 
V:4 bass 
V:1
 E2 | [DF]2 [EG]2 [EA]2 [EG]2 | [EB]2 (AG) [DF]2 [B,B]2 | [EG]2 [Ee]2 [Fd]2 [Fc]2 | [DB]6 (FG) | %5
 [EA]2 [EA]2 [FA]2 G2 | [Gc]2 [Fc]2 [G=B]2 [GB]2 | [Ec]2 [FA]2 [EG]2 [DF]2 x | E6 |] %9
V:2
 E2 | x8 | x2 E2 x4 | x8 | x6 D2 | x8 | x8 | x9 | E6 |] %9
V:3
 [E,G,]2 | [B,,B,]2 [E,B,]2 [C,A,]2 [E,B,]2 | [G,,B,]2 [A,,C]2 [B,,F,]2 [D,F,]2 | %3
 [E,B,]2 [C,C]2 [F,B,]2 [F,=A,]2 | [B,,B,]6 [B,,B,]2 | [C,A,]2 [C,C]2 [D,B,]2 [E,B,]2 | %6
 [A,C]2 [A,C]2 [G,D]2 [G,D]2 | [A,C]2 [A,,C]2 B,,2 z A, x | [E,G,]6 |] %9
V:4
 x2 | x8 | x8 | x8 | x8 | x8 | x8 | x4 B,3 B,,2 | x6 |] %9

